!!!OTL: LAUE LUEFTE FUEHL ICH WEHEN
!!!ARE: Europa, Mitteleuropa, Deutschland, Rheinland; Hochwald; Schweiz
!!!SCT: B0511
!!!YEM: Copyright 1995, estate of Helmut Schaffrath.
**kern
*ICvox
*Ivox
*M3/4
*k[b-]
*F:
=1
{8.a
16a
8a
8a
8g
8a
=2
8.cc
16b-
4b-
4r}
=3
{8.g
16a
8b-
8cc
8dd
8cc
=4
2a
4r}
=5
{8.a
16a
8a
8a
8g
8a
=6
8.cc
16b-
4b-
4r}
=7
{8.g
16a
8b-
8cc
8dd
8cc
=8
2a}
{8.cc
16cc
=9
4.ee
8ee
8dd
8cc
=10
8.ff
16cc
4cc}
{8.cc
16cc
=11
4.ee
8ee
8dd
8cc
=12
8.ff
16cc
4cc}
{8a
8b-
=13
4.cc
8ff
8ee
8dd
=14
2cc}
{8dd
8dd
=15
4.cc
8a
8g
8a
=16
2f
4r}
==
!!!AGN: Wander - Lied
!!!ONB: ESAC (Essen Associative Code) Database: BOEHME
!!!AMT: simple triple
!!!AIN: vox
!!!EED: Helmut Schaffrath
!!!EEV: 1.0
*-
